X:1
T:Otter's Holt
M:4/4
L:1/8
R:reel
K:Bmin
|: de | fBBA FEFB| A2FB ABde | fBBA FEFA | Bd (3cBA Bcde|
fBBA FEFB | A2FB ABde| faaf egfe | dBBA B2 :|
|: Bc | d2fd adfa | bfaf egfe | d2fd adfa | bfaf egfe |
d2fd adfa | bfaf e2de | fBBA FEFA | Bd (3cBA B2 :|
